X: 18
T: Sandansko Oro
T: Strand\vzansko Oro
O: Bulgaria
R: Horo
Z: John Chambers <jc@trillian.mit.edu>
P: ABABCAB
M: 9.9.4/8
K: Dm
"A"\
|: "Dm"D2 A2 G2     A3  | "Gm"G2 GF AG    G2F | "Dm"FE ED \
|| "Dm"DE F2 FE "Gm"G2F |  "C"FE ED EC "Dm"D3 |1 DE FG :|2 D2 D2 ||
"B"\
|: "Dm"DE F2 FE "Gm"G2F | "Dm"FE ED FG "Gm"G2A | "Dm"GF FE \
|| "Dm"DE F2 FE "Gm"G2F |  "C"FE ED EC "Dm"D2A,|     D2 D2 :|
K: C
"C"\
|: "C"[EC][FD] [G2E2]   [GE][FD] [F2D2][EC] \
|  "C"[EC][FD] [GE][AF] "(G7)"[BG][AF] [G2E2][FD] \
|     [GE][FD] "C"[FD][EC] \
|| "C"[EC][FD] [G2E2]   [GE][FD] [F2D2][EC] \
|  "C"[EC][FD] [GE][AF] "G7"[GE][FD] [EC][FD][EC] \
|  "C"[E2C2]   [E2C2] :|

%%sep 1 1 500


